assets/main/Trophy.svg

<svg fill-rule="evenodd" viewBox="0 0 85 95" xmlns="http://www.w3.org/2000/svg">
        <path d="m39.052 51.55c-10.768-1.546-18.117-12.533-18.117-25.857h43.464c0 13.324-7.348 24.311-18.117 25.857v11.724c0 2.339 0.547 4.645 1.597 6.735 1.645 3.273 3.969 7.898 3.969 7.898 0.577 0.973 0.628 2.221 0.132 3.248s-1.458 1.668-2.504 1.668h-13.617c-1.047 0-2.009-0.641-2.504-1.668-0.496-1.027-0.446-2.275 0.131-3.248 0 0 2.324-4.625 3.969-7.898 1.05-2.09 1.597-4.396 1.597-6.735v-11.724z" fill="#062233"/>
        <path d="m39.052 51.55c-10.768-1.546-18.117-12.533-18.117-25.857h43.464c0 13.324-7.348 24.311-18.117 25.857v11.724c0 2.339 0.547 4.645 1.597 6.735 1.645 3.273 3.969 7.898 3.969 7.898 0.577 0.973 0.628 2.221 0.132 3.248s-1.458 1.668-2.504 1.668h-13.617c-1.047 0-2.009-0.641-2.504-1.668-0.496-1.027-0.446-2.275 0.131-3.248 0 0 2.324-4.625 3.969-7.898 1.05-2.09 1.597-4.396 1.597-6.735v-11.724z" fill="#bd4800"/>
        <path d="m39.052 51.55c-10.768-1.546-18.117-12.533-18.117-25.857h43.464c0 13.324-7.348 24.311-18.117 25.857v11.724c0 2.339 0.547 4.645 1.597 6.735 1.645 3.273 3.969 7.898 3.969 7.898 0.577 0.973 0.628 2.221 0.132 3.248s-1.458 1.668-2.504 1.668h-13.617c-1.047 0-2.009-0.641-2.504-1.668-0.496-1.027-0.446-2.275 0.131-3.248 0 0 2.324-4.625 3.969-7.898 1.05-2.09 1.597-4.396 1.597-6.735v-11.724z" fill="#bd4800"/>
        <path d="m21.594 35.137c-0.429-2.928-0.659-6.113-0.659-9.444h21.732c0 13.324-3.674 24.311-9.058 25.857l-12.015-16.413z" fill="#7ae1e6"/>
        <path d="m43.501 47.024c-6.28-1.276-10.566-10.339-10.566-21.331h25.347c0 10.992-4.285 20.055-10.565 21.331v18.021c0 1.711 0.293 3.409 0.865 5.021 0.962 2.707 2.381 6.701 2.381 6.701 0.336 0.803 0.366 1.833 0.077 2.68-0.289 0.848-0.85 1.376-1.461 1.376h-7.941c-0.61 0-1.171-0.528-1.46-1.376-0.289-0.847-0.26-1.877 0.077-2.68 0 0 1.419-3.994 2.38-6.701 0.573-1.612 0.866-3.31 0.866-5.021v-18.021z" fill="#602709"/>
        <path d="m36.501 45.024c-6.28-1.276-10.566-8.339-10.566-19.331h25.347c0 10.992-4.285 18.055-10.565 19.331v20.021c0 1.711 0.293 3.409 0.865 5.021 0.962 2.707 2.381 6.701 2.381 6.701 0.336 0.803 0.366 1.833 0.077 2.68-0.289 0.848-0.85 1.376-1.461 1.376h-7.941c-0.61 0-1.171-0.528-1.46-1.376-0.289-0.847-0.26-1.877 0.077-2.68 0 0 1.484-2.623 2.856-5.049 1.482-2.62 2.141-5.627 1.892-8.627-0.551-6.627-1.502-18.067-1.502-18.067z" fill="#bd4800"/>
        <circle cx="42.109" cy="28.693" r="3" fill="#7ae1e6"/>
        <circle cx="51.282" cy="79.823" r="3" fill="#7ae1e6"/>
        <path d="m32.552 56.48v6.794c0 1.325-0.31 2.632-0.905 3.817 0 0-3.896 7.753-3.896 7.753-1.531 2.757-1.644 6.248-0.251 9.136 1.635 3.387 4.908 5.343 8.359 5.343h13.617c3.45 0 6.724-1.956 8.358-5.343 1.394-2.888 1.28-6.38-0.262-9.157 0.012 0.021-3.885-7.732-3.885-7.732-0.595-1.185-0.905-2.492-0.905-3.817v-6.794c10.729-4.337 18.117-16.283 18.117-30.787 0-3.59-2.91-6.5-6.5-6.5h-43.464c-3.59 0-6.5 2.91-6.5 6.5 0 14.504 7.389 26.45 18.117 30.787zm6.5-4.93c-10.768-1.546-18.117-12.533-18.117-25.857h43.464c0 13.324-7.348 24.311-18.117 25.857v11.724c0 2.339 0.547 4.645 1.597 6.735 1.645 3.273 3.969 7.898 3.969 7.898 0.577 0.973 0.628 2.221 0.132 3.248s-1.458 1.668-2.504 1.668h-13.617c-1.047 0-2.009-0.641-2.504-1.668-0.496-1.027-0.446-2.275 0.131-3.248 0 0 2.324-4.625 3.969-7.898 1.05-2.09 1.597-4.396 1.597-6.735v-11.724z" fill="#dcfeff"/>
        <path d="m36.927 53.305v9.969c0 2.008-0.469 3.987-1.371 5.781 0 0-3.94 7.84-3.94 7.84-0.893 1.561-0.966 3.545-0.175 5.184 0.868 1.798 2.585 2.869 4.418 2.869h13.617c1.832 0 3.55-1.071 4.418-2.869 0.791-1.64 0.718-3.627-0.181-5.192 5e-3 8e-3 -3.935-7.832-3.935-7.832-0.901-1.794-1.371-3.773-1.371-5.781v-9.969c10.735-2.584 18.117-13.883 18.117-27.612 0-1.173-0.951-2.125-2.125-2.125h-43.464c-1.173 0-2.125 0.952-2.125 2.125 0 13.729 7.382 25.028 18.117 27.612zm4.25-1.755c0-1.056-0.777-1.953-1.823-2.103-9.246-1.328-15.52-10.429-16.227-21.629h39.08c-0.706 11.2-6.981 20.301-16.227 21.629-1.046 0.15-1.823 1.047-1.823 2.103v11.724c0 2.67 0.625 5.303 1.824 7.689 1.644 3.273 3.968 7.898 3.968 7.898 0.022 0.044 0.046 0.087 0.071 0.13 0.22 0.371 0.235 0.848 0.046 1.241-0.124 0.257-0.329 0.466-0.59 0.466h-13.617c-0.262 0-0.467-0.209-0.591-0.466-0.189-0.393-0.174-0.87 0.046-1.241 0.025-0.043 0.049-0.086 0.071-0.13 0 0 2.324-4.625 3.969-7.898 1.199-2.386 1.823-5.019 1.823-7.689v-11.724z" fill="#0f192a"/>
        <path d="m18.463 10.865c0.1-0.437 0.448-0.775 0.888-0.863 0.441-0.088 0.892 0.091 1.152 0.456l3.58 5.02 6.142-0.544c0.447-0.04 0.876 0.187 1.096 0.578 0.219 0.392 0.189 0.876-0.078 1.237l-3.668 4.956 2.415 5.673c0.176 0.413 0.094 0.891-0.211 1.221s-0.774 0.45-1.2 0.308l-5.847-1.957-4.649 4.05c-0.338 0.295-0.819 0.364-1.226 0.176-0.408-0.187-0.668-0.597-0.664-1.046l0.054-6.165-5.289-3.17c-0.385-0.231-0.599-0.666-0.546-1.112s0.362-0.82 0.79-0.955l5.88-1.853 1.381-6.01z" fill="#dcfeff"/>
        <path d="m14.269 9.902-0.829 3.609-3.532 1.113c-2.043 0.645-3.519 2.428-3.77 4.555-0.25 2.128 0.771 4.205 2.608 5.307l3.177 1.903-0.033 3.703c-0.019 2.143 1.221 4.097 3.167 4.993s4.237 0.567 5.853-0.84l2.792-2.433 3.511 1.175c2.032 0.68 4.274 0.105 5.727-1.469 1.454-1.574 1.849-3.855 1.01-5.826l-1.451-3.407s2.203-2.976 2.203-2.976c1.274-1.723 1.42-4.032 0.372-5.901s-3.095-2.949-5.229-2.76l-3.688 0.327c0-1e-3 -2.15-3.015-2.15-3.015-1.245-1.745-3.396-2.597-5.497-2.178-2.102 0.419-3.762 2.032-4.241 4.12zm4.194 0.963c0.1-0.437 0.448-0.775 0.888-0.863 0.441-0.088 0.892 0.091 1.152 0.456l3.58 5.02 6.142-0.544c0.447-0.04 0.876 0.187 1.096 0.578 0.219 0.392 0.189 0.876-0.078 1.237l-3.668 4.956 2.415 5.673c0.176 0.413 0.094 0.891-0.211 1.221s-0.774 0.45-1.2 0.308l-5.847-1.957-4.649 4.05c-0.338 0.295-0.819 0.364-1.226 0.176-0.408-0.187-0.668-0.597-0.664-1.046l0.054-6.165-5.289-3.17c-0.385-0.231-0.599-0.666-0.546-1.112s0.362-0.82 0.79-0.955l5.88-1.853 1.381-6.01z" fill="#0f192a"/>
</svg>

<?xml version="1.0" encoding="UTF-8" standalone="no"?>
<!DOCTYPE svg PUBLIC "-//W3C//DTD SVG 1.1//EN" "http://www.w3.org/Graphics/SVG/1.1/DTD/svg11.dtd">
<svg width="100%" height="100%" viewBox="0 0 85 95" version="1.1" xmlns="http://www.w3.org/2000/svg" xmlns:xlink="http://www.w3.org/1999/xlink" xml:space="preserve" xmlns:serif="http://www.serif.com/" style="fill-rule:evenodd;clip-rule:evenodd;stroke-linejoin:round;stroke-miterlimit:2;">
    <rect id="Artboard21" x="0" y="0" width="85" height="95" style="fill:none;"/>
    <g>
        <path d="M39.052,51.55C28.284,50.004 20.935,39.017 20.935,25.693L64.399,25.693C64.399,39.017 57.051,50.004 46.282,51.55C46.282,51.55 46.282,58.759 46.282,63.274C46.282,65.613 46.829,67.919 47.879,70.009C49.524,73.282 51.848,77.907 51.848,77.907C52.425,78.88 52.476,80.128 51.98,81.155C51.484,82.182 50.522,82.823 49.476,82.823L35.859,82.823C34.812,82.823 33.85,82.182 33.355,81.155C32.859,80.128 32.909,78.88 33.486,77.907C33.486,77.907 35.81,73.282 37.455,70.009C38.505,67.919 39.052,65.613 39.052,63.274C39.052,58.759 39.052,51.55 39.052,51.55Z" style="fill:#062233;"/>
        <path d="M39.052,51.55C28.284,50.004 20.935,39.017 20.935,25.693L64.399,25.693C64.399,39.017 57.051,50.004 46.282,51.55C46.282,51.55 46.282,58.759 46.282,63.274C46.282,65.613 46.829,67.919 47.879,70.009C49.524,73.282 51.848,77.907 51.848,77.907C52.425,78.88 52.476,80.128 51.98,81.155C51.484,82.182 50.522,82.823 49.476,82.823L35.859,82.823C34.812,82.823 33.85,82.182 33.355,81.155C32.859,80.128 32.909,78.88 33.486,77.907C33.486,77.907 35.81,73.282 37.455,70.009C38.505,67.919 39.052,65.613 39.052,63.274C39.052,58.759 39.052,51.55 39.052,51.55Z" style="fill:#bd4800;"/>
        <path d="M39.052,51.55C28.284,50.004 20.935,39.017 20.935,25.693L64.399,25.693C64.399,39.017 57.051,50.004 46.282,51.55C46.282,51.55 46.282,58.759 46.282,63.274C46.282,65.613 46.829,67.919 47.879,70.009C49.524,73.282 51.848,77.907 51.848,77.907C52.425,78.88 52.476,80.128 51.98,81.155C51.484,82.182 50.522,82.823 49.476,82.823L35.859,82.823C34.812,82.823 33.85,82.182 33.355,81.155C32.859,80.128 32.909,78.88 33.486,77.907C33.486,77.907 35.81,73.282 37.455,70.009C38.505,67.919 39.052,65.613 39.052,63.274C39.052,58.759 39.052,51.55 39.052,51.55Z" style="fill:#bd4800;"/>
        <path d="M21.594,35.137C21.165,32.209 20.935,29.024 20.935,25.693L42.667,25.693C42.667,39.017 38.993,50.004 33.609,51.55L21.594,35.137Z" style="fill:#7ae1e6;"/>
        <path d="M43.501,47.024C37.221,45.748 32.935,36.685 32.935,25.693L58.282,25.693C58.282,36.685 53.997,45.748 47.717,47.024L47.717,65.045C47.717,66.756 48.01,68.454 48.582,70.066C49.544,72.773 50.963,76.767 50.963,76.767C51.299,77.57 51.329,78.6 51.04,79.447C50.751,80.295 50.19,80.823 49.579,80.823L41.638,80.823C41.028,80.823 40.467,80.295 40.178,79.447C39.889,78.6 39.918,77.57 40.255,76.767C40.255,76.767 41.674,72.773 42.635,70.066C43.208,68.454 43.501,66.756 43.501,65.045C43.501,59.513 43.501,47.024 43.501,47.024Z" style="fill:#602709;"/>
        <path d="M36.501,45.024C30.221,43.748 25.935,36.685 25.935,25.693L51.282,25.693C51.282,36.685 46.997,43.748 40.717,45.024L40.717,65.045C40.717,66.756 41.01,68.454 41.582,70.066C42.544,72.773 43.963,76.767 43.963,76.767C44.299,77.57 44.329,78.6 44.04,79.447C43.751,80.295 43.19,80.823 42.579,80.823L34.638,80.823C34.028,80.823 33.467,80.295 33.178,79.447C32.889,78.6 32.918,77.57 33.255,76.767C33.255,76.767 34.739,74.144 36.111,71.718C37.593,69.098 38.252,66.091 38.003,63.091C37.452,56.464 36.501,45.024 36.501,45.024Z" style="fill:#bd4800;"/>
        <circle cx="42.109" cy="28.693" r="3" style="fill:#7ae1e6;"/>
        <circle cx="51.282" cy="79.823" r="3" style="fill:#7ae1e6;"/>
        <path d="M32.552,56.48L32.552,63.274C32.552,64.599 32.242,65.906 31.647,67.091C31.647,67.091 27.751,74.844 27.751,74.844C26.22,77.601 26.107,81.092 27.5,83.98C29.135,87.367 32.408,89.323 35.859,89.323C39.897,89.323 45.437,89.323 49.476,89.323C52.926,89.323 56.2,87.367 57.834,83.98C59.228,81.092 59.114,77.6 57.572,74.823C57.584,74.844 53.687,67.091 53.687,67.091C53.092,65.906 52.782,64.599 52.782,63.274C52.782,63.274 52.782,56.48 52.782,56.48C63.511,52.143 70.899,40.197 70.899,25.693C70.899,22.103 67.989,19.193 64.399,19.193L20.935,19.193C17.345,19.193 14.435,22.103 14.435,25.693C14.435,40.197 21.824,52.143 32.552,56.48ZM39.052,51.55C28.284,50.004 20.935,39.017 20.935,25.693L64.399,25.693C64.399,39.017 57.051,50.004 46.282,51.55L46.282,63.274C46.282,65.613 46.829,67.919 47.879,70.009C49.524,73.282 51.848,77.907 51.848,77.907C52.425,78.88 52.476,80.128 51.98,81.155C51.484,82.182 50.522,82.823 49.476,82.823L35.859,82.823C34.812,82.823 33.85,82.182 33.355,81.155C32.859,80.128 32.909,78.88 33.486,77.907C33.486,77.907 35.81,73.282 37.455,70.009C38.505,67.919 39.052,65.613 39.052,63.274C39.052,58.759 39.052,51.55 39.052,51.55Z" style="fill:#dcfeff;"/>
        <path d="M36.927,53.305L36.927,63.274C36.927,65.282 36.458,67.261 35.556,69.055C35.556,69.055 31.616,76.895 31.616,76.895C30.723,78.456 30.65,80.44 31.441,82.079C32.309,83.877 34.026,84.948 35.859,84.948L49.476,84.948C51.308,84.948 53.026,83.877 53.894,82.079C54.685,80.439 54.612,78.452 53.713,76.887C53.718,76.895 49.778,69.055 49.778,69.055C48.877,67.261 48.407,65.282 48.407,63.274L48.407,53.305C59.142,50.721 66.524,39.422 66.524,25.693C66.524,24.52 65.573,23.568 64.399,23.568L20.935,23.568C19.762,23.568 18.81,24.52 18.81,25.693C18.81,39.422 26.192,50.721 36.927,53.305ZM41.177,51.55C41.177,50.494 40.4,49.597 39.354,49.447C30.108,48.119 23.834,39.018 23.127,27.818C23.127,27.818 62.207,27.818 62.207,27.818C61.501,39.018 55.226,48.119 45.98,49.447C44.934,49.597 44.157,50.494 44.157,51.55L44.157,63.274C44.157,65.944 44.782,68.577 45.981,70.963C47.625,74.236 49.949,78.861 49.949,78.861C49.971,78.905 49.995,78.948 50.02,78.991C50.24,79.362 50.255,79.839 50.066,80.232C49.942,80.489 49.737,80.698 49.476,80.698L35.859,80.698C35.597,80.698 35.392,80.489 35.268,80.232C35.079,79.839 35.094,79.362 35.314,78.991C35.339,78.948 35.363,78.905 35.385,78.861C35.385,78.861 37.709,74.236 39.354,70.963C40.553,68.577 41.177,65.944 41.177,63.274C41.177,58.759 41.177,51.55 41.177,51.55Z" style="fill:#0f192a;"/>
        <path d="M18.463,10.865C18.563,10.428 18.911,10.09 19.351,10.002C19.792,9.914 20.243,10.093 20.503,10.458L24.083,15.478L30.225,14.934C30.672,14.894 31.101,15.121 31.321,15.512C31.54,15.904 31.51,16.388 31.243,16.749L27.575,21.705L29.99,27.378C30.166,27.791 30.084,28.269 29.779,28.599C29.474,28.929 29.005,29.049 28.579,28.907L22.732,26.95L18.083,31C17.745,31.295 17.264,31.364 16.857,31.176C16.449,30.989 16.189,30.579 16.193,30.13L16.247,23.965L10.958,20.795C10.573,20.564 10.359,20.129 10.412,19.683C10.465,19.237 10.774,18.863 11.202,18.728L17.082,16.875L18.463,10.865Z" style="fill:#dcfeff;"/>
        <path d="M14.269,9.902C14.269,9.902 13.44,13.511 13.44,13.511C13.44,13.511 9.908,14.624 9.908,14.624C7.865,15.269 6.389,17.052 6.138,19.179C5.888,21.307 6.909,23.384 8.746,24.486C8.746,24.486 11.923,26.389 11.923,26.389C11.923,26.389 11.89,30.092 11.89,30.092C11.871,32.235 13.111,34.189 15.057,35.085C17.003,35.981 19.294,35.652 20.91,34.245C20.91,34.245 23.702,31.812 23.702,31.812C23.702,31.812 27.213,32.987 27.213,32.987C29.245,33.667 31.487,33.092 32.94,31.518C34.394,29.944 34.789,27.663 33.95,25.692C33.95,25.692 32.499,22.285 32.499,22.285C32.499,22.285 34.702,19.309 34.702,19.309C35.976,17.586 36.122,15.277 35.074,13.408C34.026,11.539 31.979,10.459 29.845,10.648C29.845,10.648 26.157,10.975 26.157,10.975C26.157,10.974 24.007,7.96 24.007,7.96C22.762,6.215 20.611,5.363 18.51,5.782C16.408,6.201 14.748,7.814 14.269,9.902ZM18.463,10.865C18.563,10.428 18.911,10.09 19.351,10.002C19.792,9.914 20.243,10.093 20.503,10.458L24.083,15.478L30.225,14.934C30.672,14.894 31.101,15.121 31.321,15.512C31.54,15.904 31.51,16.388 31.243,16.749L27.575,21.705L29.99,27.378C30.166,27.791 30.084,28.269 29.779,28.599C29.474,28.929 29.005,29.049 28.579,28.907L22.732,26.95L18.083,31C17.745,31.295 17.264,31.364 16.857,31.176C16.449,30.989 16.189,30.579 16.193,30.13L16.247,23.965L10.958,20.795C10.573,20.564 10.359,20.129 10.412,19.683C10.465,19.237 10.774,18.863 11.202,18.728L17.082,16.875L18.463,10.865Z" style="fill:#0f192a;"/>
    </g>
</svg>
